tools/download-figma-icons/icons/solid/heat-pump.svg

<svg width="24" height="24" viewBox="0 0 24 24" fill="none" xmlns="http://www.w3.org/2000/svg">
<path d="M21.7275 2.25H2.2725C1.02 2.25 0 3.27 0 4.5225V18.7275C0 19.98 1.02 21 2.2725 21H3.75V21.75C3.75 22.1625 4.0875 22.5 4.5 22.5H7.5C7.9125 22.5 8.25 22.1625 8.25 21.75V21H15.75V21.75C15.75 22.1625 16.0875 22.5 16.5 22.5H19.5C19.9125 22.5 20.25 22.1625 20.25 21.75V21H21.7275C22.98 21 24 19.98 24 18.7275V4.5225C24 3.27 22.98 2.25 21.7275 2.25ZM20.25 13.875H16.5C16.0875 13.875 15.75 13.5375 15.75 13.125C15.75 12.7125 16.0875 12.375 16.5 12.375H20.25C20.6625 12.375 21 12.7125 21 13.125C21 13.5375 20.6625 13.875 20.25 13.875ZM21 16.5C21 16.9125 20.6625 17.25 20.25 17.25H16.5C16.0875 17.25 15.75 16.9125 15.75 16.5C15.75 16.0875 16.0875 15.75 16.5 15.75H20.25C20.6625 15.75 21 16.0875 21 16.5ZM20.25 10.5H16.5C16.0875 10.5 15.75 10.1625 15.75 9.75V6.75C15.75 6.3375 16.0875 6 16.5 6H20.25C20.6625 6 21 6.3375 21 6.75V9.75C21 10.1625 20.6625 10.5 20.25 10.5ZM13.5375 11.6025C13.5375 14.715 11.01 17.2425 7.89 17.2425C4.77 17.2425 2.25 14.715 2.25 11.6025C2.25 8.49 4.7775 5.955 7.89 5.955C11.0025 5.955 13.5375 8.4825 13.5375 11.6025Z" fill="black"/>
<path d="M6.79497 10.5749C6.57747 10.8074 6.43497 11.1074 6.39747 11.4449C6.02247 11.3699 5.66247 10.9349 5.27997 10.0949C5.18247 9.88486 5.00997 9.74236 4.73997 9.74986C4.50747 9.74986 4.30497 9.87736 4.20747 10.0874C3.60747 11.3399 3.84747 12.6224 4.27497 13.3949C4.58247 13.9649 5.00247 14.3174 5.42247 14.3774C5.52747 14.3924 5.62497 14.3999 5.72247 14.3999C6.66747 14.3999 7.30497 13.6424 7.60497 13.0724C7.69497 13.0949 7.79247 13.1024 7.88997 13.1024C8.13747 13.1024 8.36997 13.0424 8.57247 12.9374C8.71497 13.3049 8.51997 13.8299 7.96497 14.6024C7.82247 14.7899 7.81497 15.0299 7.92747 15.2399C8.03997 15.4274 8.22747 15.5324 8.43747 15.5324H8.48997C9.87747 15.4274 10.86 14.5799 11.325 13.8224C11.6625 13.2749 11.76 12.7274 11.595 12.3374C11.1825 11.2499 10.005 11.0549 9.29997 11.1074C9.20247 10.7999 8.99997 10.5449 8.74497 10.3649C8.99247 10.0349 9.55497 9.92986 10.5225 10.0274C10.7475 10.0424 10.9725 9.93736 11.0925 9.73486C11.205 9.53236 11.1975 9.29236 11.0625 9.10486C10.2825 7.95736 9.05247 7.52236 8.16747 7.49986C7.50747 7.48486 6.99747 7.67236 6.74247 8.00986C6.02247 8.88736 6.41247 9.98236 6.79497 10.5749Z" fill="black"/>
</svg>

<svg width="24" height="24" viewBox="0 0 24 24" fill="none" xmlns="http://www.w3.org/2000/svg"><path d="M21.727 2.25H2.273A2.276 2.276 0 0 0 0 4.522v14.205A2.276 2.276 0 0 0 2.272 21H3.75v.75c0 .413.338.75.75.75h3c.412 0 .75-.337.75-.75V21h7.5v.75c0 .413.337.75.75.75h3c.413 0 .75-.337.75-.75V21h1.477A2.276 2.276 0 0 0 24 18.727V4.523a2.276 2.276 0 0 0-2.273-2.273ZM20.25 13.875H16.5a.752.752 0 0 1-.75-.75c0-.412.337-.75.75-.75h3.75c.413 0 .75.338.75.75s-.337.75-.75.75ZM21 16.5c0 .413-.337.75-.75.75H16.5a.752.752 0 0 1-.75-.75c0-.413.337-.75.75-.75h3.75c.413 0 .75.337.75.75Zm-.75-6H16.5a.752.752 0 0 1-.75-.75v-3c0-.412.337-.75.75-.75h3.75c.413 0 .75.338.75.75v3c0 .412-.337.75-.75.75Zm-6.713 1.102a5.645 5.645 0 0 1-5.647 5.64 5.638 5.638 0 0 1-5.64-5.64c0-3.112 2.527-5.647 5.64-5.647a5.651 5.651 0 0 1 5.647 5.647Z" fill="currentColor"/><path d="M6.795 10.575a1.51 1.51 0 0 0-.398.87c-.375-.075-.735-.51-1.117-1.35-.098-.21-.27-.353-.54-.345a.577.577 0 0 0-.533.337 3.678 3.678 0 0 0 .068 3.308c.307.57.727.922 1.147.982.105.015.203.023.3.023.945 0 1.583-.758 1.883-1.328a1.48 1.48 0 0 0 .967-.135c.143.368-.052.893-.607 1.665a.58.58 0 0 0-.038.638c.113.187.3.292.51.292h.053a3.69 3.69 0 0 0 2.835-1.71c.338-.547.435-1.095.27-1.485-.413-1.087-1.59-1.282-2.295-1.23a1.453 1.453 0 0 0-.555-.742c.247-.33.81-.435 1.778-.338.225.015.45-.09.57-.292a.581.581 0 0 0-.03-.63A3.69 3.69 0 0 0 8.166 7.5c-.66-.015-1.17.172-1.425.51-.72.877-.33 1.972.053 2.565Z" fill="currentColor"/></svg>
